img/logos-img-02.svg

<svg width="139" height="99" viewBox="0 0 139 99" fill="none" xmlns="http://www.w3.org/2000/svg">
<path d="M0 1.67018H21.1215V58.7456C21.1215 67.7978 25.1938 73.1854 28.5059 75.4279C25.058 78.4635 14.6059 81.1437 6.73281 74.6622C2.11758 70.8334 0 64.4613 0 58.5268V1.67018ZM131.914 49.1191V43.1025H138.376V22.0992H131.29C128.548 9.43703 117.39 0.0292969 104.06 0.0292969C88.6939 0.0292969 76.1785 12.6094 76.1785 28.1158V77.1235C80.5223 77.7525 85.7891 77.0415 90.2143 73.2948C94.8566 69.466 96.9471 63.1213 96.9471 57.1594V55.3271H107.481V34.3238H96.9471V27.9517C96.9471 18.4892 111.119 18.4892 111.119 27.9517V49.037C111.119 64.516 123.607 77.1235 139 77.1235V56.2022C135.063 56.2022 131.914 53.0025 131.914 49.1191ZM52.0164 22.0445V52.9478C52.0164 57.1594 45.5551 57.1594 45.5551 52.9478V22.0445H24.7051V58.3354C24.7051 64.8442 26.877 73.1033 36.9219 75.8108C46.9668 78.4909 52.7223 72.9119 52.7223 72.9119C52.1521 76.5765 48.7857 79.284 43.2475 79.8309C39.0395 80.2685 33.6912 78.8464 31.0307 77.6978V96.9235C37.8449 98.9746 45.0121 99.6036 52.0979 98.2089C64.8848 95.7202 72.9479 84.9724 72.9479 70.642V21.9078H52.0164V22.0445Z" fill="#737373"/>
</svg>

<svg width="139" height="99" fill="none" xmlns="http://www.w3.org/2000/svg"><path d="M0 1.67h21.122v57.076c0 9.052 4.072 14.44 7.384 16.682-3.448 3.035-13.9 5.716-21.773-.766C2.118 70.833 0 64.462 0 58.527V1.67Zm131.914 47.45v-6.017h6.462V22.098h-7.086C128.548 9.437 117.39.03 104.06.03c-15.366 0-27.882 12.58-27.882 28.087v49.008c4.344.629 9.611-.082 14.036-3.83 4.643-3.828 6.733-10.173 6.733-16.135v-1.832h10.534V34.324H96.947v-6.372c0-9.463 14.172-9.463 14.172 0v21.085c0 15.479 12.488 28.087 27.881 28.087V56.202c-3.937 0-7.086-3.2-7.086-7.083ZM52.016 22.044v30.903c0 4.211-6.46 4.211-6.46 0V22.044h-20.85v36.291c0 6.51 2.171 14.768 12.216 17.476 10.045 2.68 15.8-2.9 15.8-2.9-.57 3.665-3.936 6.373-9.474 6.92-4.209.438-9.557-.985-12.217-2.133v19.226c6.814 2.05 13.981 2.68 21.067 1.285 12.787-2.489 20.85-13.237 20.85-27.567V21.908H52.016v.136Z" fill="#737373"/></svg>
